src/lib/packages/icons/src/assets/line/file-list-shield.svg

<svg xmlns="http://www.w3.org/2000/svg" width="24" height="24" fill="none"><path fill="currentColor" d="M7.75 12a.75.75 0 1 1-1.5 0 .75.75 0 0 1 1.5 0ZM7 15.25a.75.75 0 1 0 0 1.5.75.75 0 0 0 0-1.5ZM14.75 12a.75.75 0 0 0-.75-.75H9.5a.75.75 0 0 0 0 1.5H14a.75.75 0 0 0 .75-.75ZM11 16.75a.75.75 0 0 0 0-1.5H9.5a.75.75 0 0 0 0 1.5H11Zm10.75-.634v1.995c0 2.497-1.81 4.012-3.505 4.598a.733.733 0 0 1-.49 0c-1.694-.586-3.505-2.101-3.505-4.598v-1.944a.75.75 0 0 1 .54-.72c1.52-.446 2.227-.781 2.873-1.114a.75.75 0 0 1 .69.002c.64.334 1.337.667 2.835 1.055a.75.75 0 0 1 .562.726Zm-1.5.573a12.716 12.716 0 0 1-2.246-.849c-.63.308-1.276.576-2.254.883v1.388c0 1.913 1.563 2.791 2.25 3.085.687-.293 2.25-1.172 2.25-3.085v-1.422ZM13.75 21a.75.75 0 0 1-.75.75H6c-2.418 0-3.75-1.332-3.75-3.75V6c0-2.418 1.332-3.75 3.75-3.75h6c.199 0 .39.079.53.22l6 6c.141.141.22.331.22.53v3a.75.75 0 0 1-1.5 0V9.75H15c-2.418 0-3.75-1.332-3.75-3.75V3.75H6c-1.577 0-2.25.673-2.25 2.25v12c0 1.577.673 2.25 2.25 2.25h7a.75.75 0 0 1 .75.75ZM15 8.25h1.189L12.75 4.811V6c0 1.577.673 2.25 2.25 2.25Z"/></svg>

<svg width="24" height="24" viewBox="0 0 24 24" fill="none" xmlns="http://www.w3.org/2000/svg">
<path d="M7.75 12C7.75 12.414 7.414 12.75 7 12.75C6.586 12.75 6.25 12.414 6.25 12C6.25 11.586 6.586 11.25 7 11.25C7.414 11.25 7.75 11.586 7.75 12ZM7 15.25C6.586 15.25 6.25 15.586 6.25 16C6.25 16.414 6.586 16.75 7 16.75C7.414 16.75 7.75 16.414 7.75 16C7.75 15.586 7.414 15.25 7 15.25ZM14.75 12C14.75 11.586 14.414 11.25 14 11.25H9.5C9.086 11.25 8.75 11.586 8.75 12C8.75 12.414 9.086 12.75 9.5 12.75H14C14.414 12.75 14.75 12.414 14.75 12ZM11 16.75C11.414 16.75 11.75 16.414 11.75 16C11.75 15.586 11.414 15.25 11 15.25H9.5C9.086 15.25 8.75 15.586 8.75 16C8.75 16.414 9.086 16.75 9.5 16.75H11ZM21.75 16.116V18.111C21.75 20.608 19.9391 22.123 18.2451 22.709C18.1661 22.737 18.083 22.75 18 22.75C17.917 22.75 17.8339 22.736 17.7549 22.709C16.0609 22.123 14.25 20.608 14.25 18.111V16.167C14.25 15.834 14.4701 15.541 14.7891 15.447C16.3101 15.001 17.0171 14.666 17.6631 14.333C17.8791 14.222 18.136 14.222 18.353 14.335C18.993 14.669 19.69 15.002 21.188 15.39C21.519 15.476 21.75 15.774 21.75 16.116ZM20.25 16.689C19.284 16.413 18.6249 16.146 18.0039 15.84C17.3749 16.148 16.728 16.416 15.75 16.723V18.111C15.75 20.024 17.313 20.902 18 21.196C18.687 20.903 20.25 20.024 20.25 18.111V16.689ZM13.75 21C13.75 21.414 13.414 21.75 13 21.75H6C3.582 21.75 2.25 20.418 2.25 18V6C2.25 3.582 3.582 2.25 6 2.25H12C12.199 2.25 12.39 2.329 12.53 2.47L18.53 8.47C18.671 8.611 18.75 8.801 18.75 9V12C18.75 12.414 18.414 12.75 18 12.75C17.586 12.75 17.25 12.414 17.25 12V9.75H15C12.582 9.75 11.25 8.418 11.25 6V3.75H6C4.423 3.75 3.75 4.423 3.75 6V18C3.75 19.577 4.423 20.25 6 20.25H13C13.414 20.25 13.75 20.586 13.75 21ZM15 8.25H16.189L12.75 4.811V6C12.75 7.577 13.423 8.25 15 8.25Z" fill="currentColor"/>
</svg>
